img/logo.svg

<svg width="267" height="40" viewBox="0 0 267 40" fill="none" xmlns="http://www.w3.org/2000/svg">
<path d="M45.434 21.588C45.5367 22.2847 45.9547 22.8347 46.688 23.238C47.4213 23.634 48.3893 23.832 49.592 23.832C50.7213 23.832 51.6013 23.6853 52.232 23.392C52.87 23.0987 53.189 22.6807 53.189 22.138C53.189 21.8447 53.1083 21.6027 52.947 21.412C52.7857 21.214 52.5107 21.0527 52.122 20.928C51.7407 20.8033 51.209 20.708 50.527 20.642L47.469 20.356C45.2177 20.1507 43.5713 19.6447 42.53 18.838C41.496 18.024 40.979 16.8947 40.979 15.45C40.979 14.328 41.309 13.371 41.969 12.579C42.629 11.7797 43.5603 11.1747 44.763 10.764C45.973 10.346 47.392 10.137 49.02 10.137C50.5893 10.137 51.9937 10.3643 53.233 10.819C54.4723 11.2737 55.4513 11.9117 56.17 12.733C56.896 13.5543 57.2957 14.504 57.369 15.582H52.727C52.6463 14.988 52.2723 14.5223 51.605 14.185C50.945 13.8403 50.054 13.668 48.932 13.668C47.8907 13.668 47.073 13.8073 46.479 14.086C45.8923 14.3647 45.599 14.7607 45.599 15.274C45.599 15.6773 45.7823 15.9927 46.149 16.22C46.5157 16.44 47.1573 16.5977 48.074 16.693L51.363 17.012C52.925 17.1587 54.1753 17.4117 55.114 17.771C56.0527 18.1303 56.7347 18.6217 57.16 19.245C57.5853 19.8683 57.798 20.6567 57.798 21.61C57.798 22.754 57.4533 23.7623 56.764 24.635C56.0747 25.5003 55.103 26.1713 53.849 26.648C52.595 27.1247 51.1467 27.363 49.504 27.363C47.81 27.363 46.3103 27.1247 45.005 26.648C43.6997 26.164 42.6803 25.4857 41.947 24.613C41.2137 23.7403 40.8287 22.732 40.792 21.588H45.434ZM70.7849 14.427H75.5699L69.5309 27.242C68.9149 28.5547 68.1119 29.508 67.1219 30.102C66.1319 30.696 65.0429 30.993 63.8549 30.993C62.9382 30.993 62.1169 30.8793 61.3909 30.652C60.6722 30.432 59.9719 30.0763 59.2899 29.585V26.472C59.9865 26.912 60.6355 27.2273 61.2369 27.418C61.8382 27.6087 62.4982 27.704 63.2169 27.704C63.8695 27.704 64.4195 27.5647 64.8669 27.286C65.3142 27.0073 65.6809 26.5307 65.9669 25.856L65.9779 25.823H64.0089L58.6629 14.427H63.6239L67.1659 23.007L70.7849 14.427ZM86.6104 14.064C87.7984 14.064 88.8214 14.306 89.6794 14.79C90.5374 15.2667 91.1901 15.9487 91.6374 16.836C92.0848 17.7233 92.3084 18.7683 92.3084 19.971V27H87.8204V20.631C87.8204 19.6923 87.5821 18.9737 87.1054 18.475C86.6288 17.9763 85.9431 17.727 85.0484 17.727C84.4251 17.727 83.8824 17.859 83.4204 18.123C82.9658 18.3797 82.6138 18.7537 82.3644 19.245C82.1224 19.729 82.0014 20.2973 82.0014 20.95V27H77.5024V18.772L76.6774 14.427H81.1764L81.6054 17.045C82.1481 16.077 82.8521 15.34 83.7174 14.834C84.5901 14.3207 85.5544 14.064 86.6104 14.064ZM93.7555 17.749V15.791L96.3185 14.768L98.2545 11.05H100.806V14.427H106.097V17.749H100.806V21.467C100.806 22.083 100.883 22.567 101.037 22.919C101.199 23.271 101.463 23.524 101.829 23.678C102.196 23.832 102.709 23.909 103.369 23.909C103.956 23.909 104.484 23.8613 104.953 23.766C105.43 23.6633 105.885 23.5203 106.317 23.337V26.703C105.819 26.8863 105.214 27.0403 104.502 27.165C103.791 27.297 103.072 27.363 102.346 27.363C100.315 27.363 98.8008 26.901 97.8035 25.977C96.8135 25.0457 96.3185 23.744 96.3185 22.072V17.749H93.7555ZM117.67 14.064C118.858 14.064 119.881 14.306 120.739 14.79C121.597 15.2667 122.25 15.9487 122.697 16.836C123.152 17.7233 123.379 18.7683 123.379 19.971V27H118.88V20.631C118.88 19.6923 118.642 18.9737 118.165 18.475C117.689 17.9763 117.007 17.727 116.119 17.727C115.496 17.727 114.953 17.859 114.491 18.123C114.037 18.3797 113.685 18.7537 113.435 19.245C113.193 19.729 113.072 20.2973 113.072 20.95V27H108.573V10.06H113.072V16.418C113.622 15.648 114.293 15.065 115.085 14.669C115.877 14.2657 116.739 14.064 117.67 14.064ZM130.198 21.588C130.301 22.2847 130.719 22.8347 131.452 23.238C132.186 23.634 133.154 23.832 134.356 23.832C135.486 23.832 136.366 23.6853 136.996 23.392C137.634 23.0987 137.953 22.6807 137.953 22.138C137.953 21.8447 137.873 21.6027 137.711 21.412C137.55 21.214 137.275 21.0527 136.886 20.928C136.505 20.8033 135.973 20.708 135.291 20.642L132.233 20.356C129.982 20.1507 128.336 19.6447 127.294 18.838C126.26 18.024 125.743 16.8947 125.743 15.45C125.743 14.328 126.073 13.371 126.733 12.579C127.393 11.7797 128.325 11.1747 129.527 10.764C130.737 10.346 132.156 10.137 133.784 10.137C135.354 10.137 136.758 10.3643 137.997 10.819C139.237 11.2737 140.216 11.9117 140.934 12.733C141.66 13.5543 142.06 14.504 142.133 15.582H137.491C137.411 14.988 137.037 14.5223 136.369 14.185C135.709 13.8403 134.818 13.668 133.696 13.668C132.655 13.668 131.837 13.8073 131.243 14.086C130.657 14.3647 130.363 14.7607 130.363 15.274C130.363 15.6773 130.547 15.9927 130.913 16.22C131.28 16.44 131.922 16.5977 132.838 16.693L136.127 17.012C137.689 17.1587 138.94 17.4117 139.878 17.771C140.817 18.1303 141.499 18.6217 141.924 19.245C142.35 19.8683 142.562 20.6567 142.562 21.61C142.562 22.754 142.218 23.7623 141.528 24.635C140.839 25.5003 139.867 26.1713 138.613 26.648C137.359 27.1247 135.911 27.363 134.268 27.363C132.574 27.363 131.075 27.1247 129.769 26.648C128.464 26.164 127.445 25.4857 126.711 24.613C125.978 23.7403 125.593 22.732 125.556 21.588H130.198ZM154.671 14.064C155.888 14.064 156.966 14.3427 157.905 14.9C158.851 15.45 159.584 16.231 160.105 17.243C160.625 18.2477 160.886 19.4063 160.886 20.719C160.886 22.0243 160.625 23.183 160.105 24.195C159.584 25.1997 158.851 25.9807 157.905 26.538C156.966 27.088 155.888 27.363 154.671 27.363C153.571 27.363 152.57 27.1173 151.668 26.626C150.766 26.1347 150.01 25.4417 149.402 24.547V30.63H144.903V14.427H149.402V16.836C150.018 15.9487 150.773 15.2667 151.668 14.79C152.57 14.306 153.571 14.064 154.671 14.064ZM153.318 23.92C153.904 23.92 154.425 23.7843 154.88 23.513C155.342 23.2343 155.701 22.853 155.958 22.369C156.214 21.885 156.343 21.335 156.343 20.719C156.343 20.103 156.214 19.553 155.958 19.069C155.701 18.5777 155.342 18.1963 154.88 17.925C154.425 17.6463 153.904 17.507 153.318 17.507C152.724 17.507 152.152 17.6463 151.602 17.925C151.059 18.1963 150.579 18.5777 150.161 19.069C149.75 19.553 149.438 20.103 149.226 20.719C149.438 21.335 149.75 21.885 150.161 22.369C150.579 22.853 151.059 23.2343 151.602 23.513C152.152 23.7843 152.724 23.92 153.318 23.92ZM167.572 21.995C167.88 22.6623 168.401 23.1757 169.134 23.535C169.867 23.887 170.791 24.063 171.906 24.063C172.83 24.063 173.75 23.942 174.667 23.7C175.584 23.458 176.42 23.1133 177.175 22.666V25.526C176.295 26.12 175.301 26.5747 174.194 26.89C173.087 27.2053 171.899 27.363 170.63 27.363C169.112 27.363 167.752 27.0843 166.549 26.527C165.346 25.9623 164.404 25.174 163.722 24.162C163.04 23.15 162.699 21.9877 162.699 20.675C162.699 19.3843 163.025 18.2367 163.678 17.232C164.338 16.2273 165.247 15.45 166.406 14.9C167.565 14.3427 168.87 14.064 170.322 14.064C171.796 14.064 173.072 14.3903 174.15 15.043C175.228 15.6883 176.053 16.6087 176.625 17.804C177.204 18.992 177.494 20.389 177.494 21.995H167.572ZM170.421 17.232C169.651 17.232 168.998 17.419 168.463 17.793C167.935 18.1597 167.572 18.6583 167.374 19.289H173.314C173.109 18.629 172.757 18.123 172.258 17.771C171.767 17.4117 171.154 17.232 170.421 17.232ZM194.849 21.698C194.725 22.8127 194.314 23.799 193.617 24.657C192.921 25.515 192.008 26.1823 190.878 26.659C189.749 27.1283 188.495 27.363 187.116 27.363C185.584 27.363 184.223 27.0843 183.035 26.527C181.855 25.9697 180.934 25.1887 180.274 24.184C179.622 23.172 179.295 22.017 179.295 20.719C179.295 19.421 179.622 18.2697 180.274 17.265C180.934 16.253 181.855 15.4683 183.035 14.911C184.223 14.3463 185.584 14.064 187.116 14.064C188.495 14.064 189.749 14.3023 190.878 14.779C192.008 15.2483 192.921 15.9157 193.617 16.781C194.314 17.639 194.725 18.6253 194.849 19.74H190.383C190.229 18.9993 189.859 18.4273 189.272 18.024C188.686 17.6133 187.967 17.408 187.116 17.408C186.449 17.408 185.866 17.5363 185.367 17.793C184.876 18.0497 184.495 18.4273 184.223 18.926C183.959 19.4247 183.827 20.0223 183.827 20.719C183.827 21.7677 184.121 22.5817 184.707 23.161C185.301 23.733 186.104 24.019 187.116 24.019C187.96 24.019 188.675 23.81 189.261 23.392C189.855 22.9667 190.229 22.402 190.383 21.698H194.849ZM195.782 17.749V15.791L198.345 14.768L200.281 11.05H202.833V14.427H208.124V17.749H202.833V21.467C202.833 22.083 202.91 22.567 203.064 22.919C203.226 23.271 203.49 23.524 203.856 23.678C204.223 23.832 204.736 23.909 205.396 23.909C205.983 23.909 206.511 23.8613 206.98 23.766C207.457 23.6633 207.912 23.5203 208.344 23.337V26.703C207.846 26.8863 207.241 27.0403 206.529 27.165C205.818 27.297 205.099 27.363 204.373 27.363C202.342 27.363 200.828 26.901 199.83 25.977C198.84 25.0457 198.345 23.744 198.345 22.072V17.749H195.782ZM219.653 14.064C220.137 14.064 220.654 14.1227 221.204 14.24V18.079C220.383 17.9103 219.62 17.826 218.916 17.826C217.845 17.826 216.98 18.1487 216.32 18.794C215.66 19.4393 215.33 20.4513 215.33 21.83V27H210.831V18.662L210.006 14.427H214.582L215.132 17.738C215.983 15.2887 217.49 14.064 219.653 14.064ZM238.413 27H233.925L233.496 24.404C232.96 25.3647 232.271 26.098 231.428 26.604C230.584 27.1027 229.649 27.352 228.623 27.352C227.464 27.352 226.467 27.1137 225.631 26.637C224.795 26.153 224.157 25.4673 223.717 24.58C223.277 23.6927 223.057 22.6513 223.057 21.456V14.427H227.556V20.807C227.556 21.7383 227.779 22.4533 228.227 22.952C228.681 23.4433 229.33 23.689 230.174 23.689C231.105 23.689 231.824 23.4103 232.33 22.853C232.843 22.2883 233.1 21.4963 233.1 20.477V14.427H237.599V22.666L238.413 27ZM259.573 14.064C260.71 14.064 261.689 14.306 262.51 14.79C263.332 15.2667 263.955 15.9487 264.38 16.836C264.813 17.7233 265.029 18.7683 265.029 19.971V27H260.53V20.631C260.53 19.6923 260.314 18.9737 259.881 18.475C259.456 17.9763 258.84 17.727 258.033 17.727C257.461 17.727 256.966 17.859 256.548 18.123C256.138 18.3797 255.819 18.75 255.591 19.234C255.371 19.718 255.261 20.29 255.261 20.95V27H250.762V20.631C250.762 19.6923 250.546 18.9737 250.113 18.475C249.688 17.9763 249.072 17.727 248.265 17.727C247.693 17.727 247.198 17.859 246.78 18.123C246.37 18.3797 246.051 18.75 245.823 19.234C245.603 19.718 245.493 20.29 245.493 20.95V27H240.994V18.772L240.169 14.427H244.668L245.086 16.99C245.607 16.0367 246.278 15.3107 247.099 14.812C247.921 14.3133 248.83 14.064 249.827 14.064C251.03 14.064 252.053 14.3353 252.896 14.878C253.74 15.4133 254.363 16.176 254.766 17.166C255.28 16.1613 255.951 15.395 256.779 14.867C257.615 14.3317 258.547 14.064 259.573 14.064Z" fill="white"/>
<path d="M0 21.8644C0 21.2539 0.258025 20.6718 0.71039 20.2619L3.84472 17.4214C3.84472 17.4214 3.60442 18.3826 3.60442 18.6228C3.60442 18.8631 3.60442 27.9943 3.60442 28.3548C3.60442 28.7152 3.84472 29.5563 3.84472 29.5563L0.7989 27.0815C0.293466 26.6709 0 26.0543 0 25.4031V21.8644Z" fill="white"/>
<path d="M26.6727 19.7017C26.6727 19.0912 26.4147 18.5092 25.9623 18.0992L22.828 15.2587C22.828 15.2587 23.0683 16.2199 23.0683 16.4602C23.0683 16.7005 23.0683 28.4749 23.0683 28.8354C23.0683 29.1958 22.828 30.0369 22.828 30.0369L25.8738 27.5621C26.3793 27.1515 26.6727 26.5349 26.6727 25.8837V19.7017Z" fill="white"/>
<path d="M5.76708 13.1865C5.76708 12.4403 6.08244 11.7289 6.63533 11.2279L9.61179 8.53047C9.61179 8.53047 9.3715 9.49165 9.3715 9.73194C9.3715 9.97224 9.3715 34.242 9.3715 34.6025C9.3715 34.9629 9.61179 35.8039 9.61179 35.8039L6.74351 33.4734C6.12576 32.9715 5.76708 32.2179 5.76708 31.422V13.1865Z" fill="white"/>
<path d="M20.9056 10.7835C20.9056 10.0374 20.5903 9.326 20.0374 8.82494L17.0609 6.12752C17.0609 6.12752 17.3012 7.0887 17.3012 7.32899C17.3012 7.56929 17.3012 34.242 17.3012 34.6025C17.3012 34.9629 17.0609 35.8039 17.0609 35.8039L19.9292 33.4734C20.547 32.9715 20.9056 32.2179 20.9056 31.422V10.7835Z" fill="white"/>
<path d="M13.3364 0C13.3364 0 11.5342 1.68206 11.5342 2.64324V37.0054C11.5342 37.9666 13.3364 39.6486 13.3364 39.6486C13.3364 39.6486 15.1386 37.9666 15.1386 37.0054V2.64324C15.1386 1.68206 13.3364 0 13.3364 0Z" fill="white"/>
</svg>

<svg width="267" height="40" fill="none" xmlns="http://www.w3.org/2000/svg"><path d="M45.434 21.588c.103.697.52 1.247 1.254 1.65.733.396 1.701.594 2.904.594 1.13 0 2.01-.147 2.64-.44.638-.293.957-.711.957-1.254 0-.293-.08-.535-.242-.726-.161-.198-.436-.36-.825-.484-.381-.125-.913-.22-1.595-.286l-3.058-.286c-2.251-.205-3.898-.711-4.939-1.518-1.034-.814-1.551-1.943-1.551-3.388 0-1.122.33-2.079.99-2.871.66-.8 1.591-1.404 2.794-1.815 1.21-.418 2.629-.627 4.257-.627 1.57 0 2.974.227 4.213.682 1.24.455 2.218 1.093 2.937 1.914a4.674 4.674 0 011.199 2.849h-4.642c-.08-.594-.455-1.06-1.122-1.397-.66-.345-1.551-.517-2.673-.517-1.041 0-1.859.14-2.453.418-.587.279-.88.675-.88 1.188 0 .403.183.719.55.946.367.22 1.008.378 1.925.473l3.289.319c1.562.147 2.812.4 3.751.759.939.36 1.62.85 2.046 1.474.425.623.638 1.412.638 2.365 0 1.144-.345 2.152-1.034 3.025-.69.865-1.661 1.536-2.915 2.013-1.254.477-2.702.715-4.345.715-1.694 0-3.194-.238-4.499-.715-1.305-.484-2.325-1.162-3.058-2.035a4.815 4.815 0 01-1.155-3.025h4.642zm25.35-7.161h4.786l-6.04 12.815c-.615 1.313-1.418 2.266-2.408 2.86a6.231 6.231 0 01-3.267.891c-.917 0-1.738-.114-2.464-.341a7.202 7.202 0 01-2.101-1.067v-3.113c.697.44 1.346.755 1.947.946.601.19 1.261.286 1.98.286.653 0 1.203-.14 1.65-.418.447-.279.814-.755 1.1-1.43l.01-.033H64.01l-5.346-11.396h4.96l3.543 8.58 3.619-8.58zm15.826-.363c1.188 0 2.211.242 3.07.726a4.713 4.713 0 011.957 2.046c.448.887.671 1.932.671 3.135V27H87.82v-6.369c0-.939-.238-1.657-.715-2.156-.476-.499-1.162-.748-2.057-.748-.623 0-1.166.132-1.628.396-.454.257-.806.63-1.056 1.122-.242.484-.363 1.052-.363 1.705V27h-4.499v-8.228l-.825-4.345h4.5l.428 2.618c.543-.968 1.247-1.705 2.112-2.211a5.601 5.601 0 012.893-.77zm7.145 3.685v-1.958l2.564-1.023 1.935-3.718h2.552v3.377h5.291v3.322h-5.291v3.718c0 .616.077 1.1.231 1.452.162.352.426.605.792.759.367.154.88.231 1.54.231a7.99 7.99 0 001.584-.143 7.556 7.556 0 001.364-.429v3.366c-.498.183-1.103.337-1.815.462a11.79 11.79 0 01-2.156.198c-2.031 0-3.545-.462-4.543-1.386-.99-.931-1.484-2.233-1.484-3.905v-4.323h-2.564zm23.915-3.685c1.188 0 2.211.242 3.069.726a4.711 4.711 0 011.958 2.046c.455.887.682 1.932.682 3.135V27h-4.499v-6.369c0-.939-.238-1.657-.715-2.156-.476-.499-1.158-.748-2.046-.748-.623 0-1.166.132-1.628.396-.454.257-.806.63-1.056 1.122-.242.484-.363 1.052-.363 1.705V27h-4.499V10.06h4.499v6.358c.55-.77 1.221-1.353 2.013-1.749a5.615 5.615 0 012.585-.605zm12.528 7.524c.103.697.521 1.247 1.254 1.65.734.396 1.702.594 2.904.594 1.13 0 2.01-.147 2.64-.44.638-.293.957-.711.957-1.254 0-.293-.08-.535-.242-.726-.161-.198-.436-.36-.825-.484-.381-.125-.913-.22-1.595-.286l-3.058-.286c-2.251-.205-3.897-.711-4.939-1.518-1.034-.814-1.551-1.943-1.551-3.388 0-1.122.33-2.079.99-2.871.66-.8 1.592-1.404 2.794-1.815 1.21-.418 2.629-.627 4.257-.627 1.57 0 2.974.227 4.213.682 1.24.455 2.219 1.093 2.937 1.914a4.672 4.672 0 011.199 2.849h-4.642c-.08-.594-.454-1.06-1.122-1.397-.66-.345-1.551-.517-2.673-.517-1.041 0-1.859.14-2.453.418-.586.279-.88.675-.88 1.188 0 .403.184.719.55.946.367.22 1.009.378 1.925.473l3.289.319c1.562.147 2.813.4 3.751.759.939.36 1.621.85 2.046 1.474.426.623.638 1.412.638 2.365 0 1.144-.344 2.152-1.034 3.025-.689.865-1.661 1.536-2.915 2.013-1.254.477-2.702.715-4.345.715-1.694 0-3.193-.238-4.499-.715-1.305-.484-2.324-1.162-3.058-2.035a4.819 4.819 0 01-1.155-3.025h4.642zm24.473-7.524c1.217 0 2.295.279 3.234.836.946.55 1.679 1.331 2.2 2.343.52 1.005.781 2.163.781 3.476 0 1.305-.261 2.464-.781 3.476a5.704 5.704 0 01-2.2 2.343c-.939.55-2.017.825-3.234.825-1.1 0-2.101-.246-3.003-.737a6.447 6.447 0 01-2.266-2.079v6.083h-4.499V14.427h4.499v2.409c.616-.887 1.371-1.57 2.266-2.046.902-.484 1.903-.726 3.003-.726zm-1.353 9.856c.586 0 1.107-.136 1.562-.407.462-.279.821-.66 1.078-1.144.256-.484.385-1.034.385-1.65 0-.616-.129-1.166-.385-1.65a2.8 2.8 0 00-1.078-1.144c-.455-.279-.976-.418-1.562-.418a3.75 3.75 0 00-1.716.418 4.559 4.559 0 00-1.441 1.144 5.077 5.077 0 00-.935 1.65c.212.616.524 1.166.935 1.65a4.78 4.78 0 001.441 1.144c.55.271 1.122.407 1.716.407zm14.254-1.925c.308.667.829 1.18 1.562 1.54.733.352 1.657.528 2.772.528.924 0 1.844-.121 2.761-.363a9.795 9.795 0 002.508-1.034v2.86a10.358 10.358 0 01-2.981 1.364 12.96 12.96 0 01-3.564.473c-1.518 0-2.878-.279-4.081-.836-1.203-.565-2.145-1.353-2.827-2.365-.682-1.012-1.023-2.174-1.023-3.487 0-1.29.326-2.438.979-3.443.66-1.005 1.569-1.782 2.728-2.332 1.159-.557 2.464-.836 3.916-.836 1.474 0 2.75.326 3.828.979 1.078.645 1.903 1.566 2.475 2.761.579 1.188.869 2.585.869 4.191h-9.922zm2.849-4.763c-.77 0-1.423.187-1.958.561a2.782 2.782 0 00-1.089 1.496h5.94c-.205-.66-.557-1.166-1.056-1.518-.491-.36-1.104-.539-1.837-.539zm24.428 4.466a5.574 5.574 0 01-1.232 2.959c-.696.858-1.609 1.525-2.739 2.002-1.129.47-2.383.704-3.762.704-1.532 0-2.893-.279-4.081-.836-1.18-.557-2.101-1.338-2.761-2.343-.652-1.012-.979-2.167-.979-3.465s.327-2.45.979-3.454c.66-1.012 1.581-1.797 2.761-2.354 1.188-.565 2.549-.847 4.081-.847 1.379 0 2.633.238 3.762.715 1.13.47 2.043 1.137 2.739 2.002a5.574 5.574 0 011.232 2.959h-4.466c-.154-.74-.524-1.313-1.111-1.716-.586-.41-1.305-.616-2.156-.616-.667 0-1.25.128-1.749.385a2.711 2.711 0 00-1.144 1.133c-.264.499-.396 1.096-.396 1.793 0 1.049.294 1.863.88 2.442.594.572 1.397.858 2.409.858.844 0 1.559-.209 2.145-.627a2.74 2.74 0 001.122-1.694h4.466zm.933-3.949v-1.958l2.563-1.023 1.936-3.718h2.552v3.377h5.291v3.322h-5.291v3.718c0 .616.077 1.1.231 1.452.162.352.426.605.792.759.367.154.88.231 1.54.231a7.99 7.99 0 001.584-.143 7.556 7.556 0 001.364-.429v3.366c-.498.183-1.103.337-1.815.462a11.79 11.79 0 01-2.156.198c-2.031 0-3.545-.462-4.543-1.386-.99-.931-1.485-2.233-1.485-3.905v-4.323h-2.563zm23.871-3.685c.484 0 1.001.059 1.551.176v3.839a11.416 11.416 0 00-2.288-.253c-1.071 0-1.936.323-2.596.968-.66.645-.99 1.657-.99 3.036V27h-4.499v-8.338l-.825-4.235h4.576l.55 3.311c.851-2.45 2.358-3.674 4.521-3.674zM238.413 27h-4.488l-.429-2.596c-.536.96-1.225 1.694-2.068 2.2a5.411 5.411 0 01-2.805.748c-1.159 0-2.156-.238-2.992-.715a4.766 4.766 0 01-1.914-2.057c-.44-.887-.66-1.929-.66-3.124v-7.029h4.499v6.38c0 .931.223 1.646.671 2.145.454.491 1.103.737 1.947.737.931 0 1.65-.279 2.156-.836.513-.565.77-1.357.77-2.376v-6.05h4.499v8.239l.814 4.334zm21.16-12.936c1.137 0 2.116.242 2.937.726a4.6 4.6 0 011.87 2.046c.433.887.649 1.932.649 3.135V27h-4.499v-6.369c0-.939-.216-1.657-.649-2.156-.425-.499-1.041-.748-1.848-.748-.572 0-1.067.132-1.485.396-.41.257-.729.627-.957 1.111-.22.484-.33 1.056-.33 1.716V27h-4.499v-6.369c0-.939-.216-1.657-.649-2.156-.425-.499-1.041-.748-1.848-.748-.572 0-1.067.132-1.485.396-.41.257-.729.627-.957 1.111-.22.484-.33 1.056-.33 1.716V27h-4.499v-8.228l-.825-4.345h4.499l.418 2.563c.521-.953 1.192-1.68 2.013-2.178a5.157 5.157 0 012.728-.748c1.203 0 2.226.271 3.069.814.844.535 1.467 1.298 1.87 2.288.514-1.005 1.185-1.771 2.013-2.299a5.075 5.075 0 012.794-.803zM0 21.864c0-.61.258-1.192.71-1.602l3.135-2.84s-.24.96-.24 1.2v9.733c0 .36.24 1.201.24 1.201L.799 27.081A2.162 2.162 0 010 25.403v-3.539zm26.673-2.162c0-.61-.258-1.193-.71-1.603l-3.135-2.84s.24.96.24 1.201v12.375c0 .36-.24 1.202-.24 1.202l3.046-2.475c.505-.41.799-1.027.799-1.678v-6.182zM5.767 13.187c0-.747.315-1.458.868-1.96L9.612 8.53s-.24.962-.24 1.202v24.87c0 .36.24 1.202.24 1.202l-2.868-2.33a2.643 2.643 0 01-.977-2.052V13.186zm15.139-2.403c0-.747-.316-1.458-.869-1.96l-2.976-2.696s.24.96.24 1.201v27.273c0 .36-.24 1.202-.24 1.202l2.868-2.33a2.643 2.643 0 00.977-2.052V10.783zM13.336 0s-1.802 1.682-1.802 2.643v34.362c0 .962 1.802 2.644 1.802 2.644s1.803-1.682 1.803-2.644V2.643c0-.96-1.803-2.643-1.803-2.643z" fill="#fff"/></svg>
